X:4
T:Polka Gudmund Dansen
C:Trad.
O:Norvge
M:2/4
L:1/8
Q:1/4=120
K:G
e/f/ |: "G"gd "C"ce | "G"dB G"D"A/B/ | "C"cG "F"=FA | "G"GB de/f/ |
gd "C"ce | "G"dB G"D"A/B/ | "C"cG "F"=FA |1 "G"G2 Ge/f/ :|2 "G"G2 G2 |:
"G"BG "C"c2 | cG "Bb"_B2 | "F"AG =FA | "G"GB d2 |
"G"g"D"f "G"g2 | gd {d}"C"e2 | "G"d"F"A {AB}A=F | "C"G2 G2 :|
